images_sukapura_svg/cmd/sc_spacing.svg

<svg viewBox="0 0 16 16" xmlns="http://www.w3.org/2000/svg" xmlns:xlink="http://www.w3.org/1999/xlink"><linearGradient id="a" gradientTransform="translate(-26.983051 -6.983051)" gradientUnits="userSpaceOnUse" x1="14" x2="13.79661" y1="22" y2="2.135593"><stop offset="0" stop-color="#0040dd"/><stop offset="1" stop-color="#0a84ff"/></linearGradient><linearGradient id="b" gradientUnits="userSpaceOnUse" x1="20.871548" x2="20.939325" xlink:href="#a" y1="1.139827" y2="7.953386"/><linearGradient id="c" gradientUnits="userSpaceOnUse" x1="12.430614" x2="12.617718" xlink:href="#a" y1=".990317" y2="7.605959"/><linearGradient id="d" gradientUnits="userSpaceOnUse" x1="14.067797" x2="14.237267" xlink:href="#a" y1="15.91787" y2="9.070412"/>


/&amp;amp;amp;gt;<path d="m3.7792969 0-3.7792969 10.003906h.8828125l1.4179687-1.4218748.3164063-.9082031h3.875l.8183594 2.3300779h1.8125l-3.7851563-10.003906zm.7753906 2.1230469 1.4492187 4.1503906h-2.8984374z" fill="#69696e"/><path d="m7.1308594 0 3.5859376 10.003906h.291015v-.5097654a1.4921604 1.4921604 0 0 1 1.470704-1.4921875 1.4921604 1.4921604 0 0 1 .599609.1171875l2.921875-8.1191406h-1.910156l-2.541016 7.8261719-2.5156249-7.8261719z" fill="#69696e"/><g fill="none" stroke="#0a84ff" stroke-linecap="round" stroke-linejoin="round" transform="matrix(-1 0 0 -1 21.007121 16.9899)"><path d="m12.5 9.4941406v6.0000004l3-2.994141z" fill="url(#d)" stroke="url(#d)" transform="matrix(-1 0 0 -1 21.007122 16.9899)"/><path d="m5.5071212 4.4898959h14.9928788" stroke="url(#c)"/><path d="m17.507142 7.4957594v-6.0000004l3 2.994141z" fill="url(#b)" stroke="url(#b)"/></g></svg>

<?xml version="1.0" encoding="UTF-8" standalone="no"?>
<svg
   xmlns:dc="http://purl.org/dc/elements/1.1/"
   xmlns:cc="http://creativecommons.org/ns#"
   xmlns:rdf="http://www.w3.org/1999/02/22-rdf-syntax-ns#"
   xmlns:svg="http://www.w3.org/2000/svg"
   xmlns="http://www.w3.org/2000/svg"
   xmlns:xlink="http://www.w3.org/1999/xlink"
   xmlns:sodipodi="http://sodipodi.sourceforge.net/DTD/sodipodi-0.dtd"
   xmlns:inkscape="http://www.inkscape.org/namespaces/inkscape"
   viewBox="0 0 16 16"
   version="1.1"
   id="svg12"
   sodipodi:docname="sc_spacing.svg"
   inkscape:version="0.92.3 (unknown)"
   inkscape:export-filename="/home/rizmut/Dokumen/Rizmut/Github/libreoffice-style-sukapura/images_sukapura/cmd/sc_spacing.png"
   inkscape:export-xdpi="96"
   inkscape:export-ydpi="96"><metadata
   id="metadata18">
  <rdf:RDF>
    <cc:Work
       rdf:about="">
      <dc:format>image/svg+xml</dc:format>
      <dc:type
         rdf:resource="http://purl.org/dc/dcmitype/StillImage" />
    </cc:Work>
  </rdf:RDF>
</metadata>
<defs
   id="defs16">
  <linearGradient
     gradientTransform="translate(-26.983051,-6.9830508)"
     id="a"
     gradientUnits="userSpaceOnUse"
     x1="14"
     x2="13.79661"
     y1="22"
     y2="2.1355929">
    <stop
       offset="0"
       stop-color="#0040dd"
       id="stop2" />
    <stop
       offset="1"
       stop-color="#0a84ff"
       id="stop4" />
  </linearGradient>
  <linearGradient
     inkscape:collect="always"
     xlink:href="#a"
     id="linearGradient846"
     x1="20.871548"
     y1="1.1398268"
     x2="20.939325"
     y2="7.9533863"
     gradientUnits="userSpaceOnUse" />
  <linearGradient
     inkscape:collect="always"
     xlink:href="#a"
     id="linearGradient854"
     x1="20.871548"
     y1="1.1398268"
     x2="20.939325"
     y2="7.9533863"
     gradientUnits="userSpaceOnUse" />
  <linearGradient
     inkscape:collect="always"
     xlink:href="#a"
     id="linearGradient862"
     x1="12.430614"
     y1="0.99031651"
     x2="12.617718"
     y2="7.6059594"
     gradientUnits="userSpaceOnUse" />
  <linearGradient
     inkscape:collect="always"
     xlink:href="#a"
     id="linearGradient870"
     x1="14.067797"
     y1="15.91787"
     x2="14.237267"
     y2="9.0704117"
     gradientUnits="userSpaceOnUse" />
  <linearGradient
     inkscape:collect="always"
     xlink:href="#a"
     id="linearGradient878"
     x1="14.067797"
     y1="15.91787"
     x2="14.237267"
     y2="9.0704117"
     gradientUnits="userSpaceOnUse" />
</defs>
<sodipodi:namedview
   pagecolor="#ffffff"
   bordercolor="#666666"
   borderopacity="1"
   objecttolerance="10"
   gridtolerance="10"
   guidetolerance="10"
   inkscape:pageopacity="0"
   inkscape:pageshadow="2"
   inkscape:window-width="1366"
   inkscape:window-height="706"
   id="namedview14"
   showgrid="true"
   inkscape:zoom="14.75"
   inkscape:cx="10.532985"
   inkscape:cy="13.068655"
   inkscape:window-x="0"
   inkscape:window-y="0"
   inkscape:window-maximized="1"
   inkscape:current-layer="svg12"
   inkscape:snap-global="false">
  <inkscape:grid
     type="xygrid"
     id="grid824" />
</sodipodi:namedview>


/&amp;amp;gt;<path
   style="font-style:normal;font-variant:normal;font-weight:500;font-stretch:normal;font-size:medium;line-height:1.25;font-family:Roboto;-inkscape-font-specification:'Roboto Medium';letter-spacing:0px;word-spacing:0px;fill:#69696e;fill-opacity:1;stroke:none;stroke-width:0.35176772"
   d="M 3.7792969 0 L 0 10.003906 L 0.8828125 10.003906 L 2.3007812 8.5820312 L 2.6171875 7.6738281 L 6.4921875 7.6738281 L 7.3105469 10.003906 L 9.1230469 10.003906 L 5.3378906 0 L 3.7792969 0 z M 4.5546875 2.1230469 L 6.0039062 6.2734375 L 3.1054688 6.2734375 L 4.5546875 2.1230469 z "
   id="path870" />
<path
   style="font-style:normal;font-variant:normal;font-weight:500;font-stretch:normal;font-size:medium;line-height:1.25;font-family:Roboto;-inkscape-font-specification:'Roboto Medium';letter-spacing:0px;word-spacing:0px;fill:#69696e;fill-opacity:1;stroke:none;stroke-width:0.35176772"
   d="M 7.1308594 0 L 10.716797 10.003906 L 11.007812 10.003906 L 11.007812 9.4941406 A 1.4921604 1.4921604 0 0 1 12.478516 8.0019531 A 1.4921604 1.4921604 0 0 1 13.078125 8.1191406 L 16 0 L 14.089844 0 L 11.548828 7.8261719 L 9.0332031 0 L 7.1308594 0 z "
   id="path872" />
<g
   transform="matrix(-1 0 0 -1 21.007121 16.9899)"
   id="g10"
   stroke-linejoin="round"
   stroke-linecap="round"
   stroke="#0a84ff"
   fill="none">
  <path
     d="m12.5 9.4941406v6.0000004l3-2.994141z"
     transform="matrix(-1 0 0 -1 21.007122 16.9899)"
     id="path4"
     style="stroke:url(#linearGradient870);fill-opacity:1;fill:url(#linearGradient878)"
     fill="#0a84ff" />
  <path
     d="m5.5071212 4.4898959h14.9928788"
     id="path6"
     style="stroke:url(#linearGradient862)" />
  <path
     d="m17.507142 7.4957594v-6.0000004l3 2.994141z"
     id="path8"
     style="fill-opacity:1;fill:url(#linearGradient846);stroke:url(#linearGradient854)"
     fill="#0a84ff" />
</g>
</svg>
